X: 25
T: Jingle Bells
P: piffero primo c0050
O: James Pierpont
%R: march
F: http://ancients.sudburymuster.org/mus/col/pdf/carolsF.pdf
Z: 2020 John Chambers <jc:trillian.mit.edu>
M: 4/4
L: 1/4
K: G
% - - - - - - - - - -
[|\
DB AG | D3 D/D/ | DB AG | E4 |\
Ec BA | F3 F | dd cA | B3 D ||\
DB AG | D3 D/D/ | DB AG |
E3 E |\
Ec BA | dd dd | ed cA | G3 z |[|\
BB B2 | BB B2 | Bd GA | B4 |\
cc cc | cB BB/B/ |
BA AB | A>z d2 ||\
BB B2 | BB B2 | Bd GA | B4 |\
cc cc | cB BB/B/ | dd cA | G3 z |]
%% - - - - - - - - - -


